src/assets/header_2.svg

<svg width="390" height="281" viewBox="0 0 390 281" fill="none" xmlns="http://www.w3.org/2000/svg">
<path d="M83.8018 181H77.6818L78.3618 178.348V139.18L70.4738 181H65.6458L57.6218 139.112V178.348L58.3018 181H55.8538L56.5338 178.348V136.052L55.8538 133.4H62.0418L61.8378 135.984L69.9298 178.144L77.8858 135.984L77.6818 133.4H83.8018L83.1218 136.052V178.348L83.8018 181ZM110.123 181H103.935L104.207 178.348L102.303 165.632H93.7346L91.8306 178.348L92.1026 181H89.6546L90.7426 178.348L97.0666 136.052L96.7946 133.4H102.303L109.035 178.348L110.123 181ZM102.167 164.544L98.0186 137.004L93.8706 164.544H102.167ZM124.701 181H118.377L119.057 178.348V157.744L112.257 134.624L111.237 133.4H117.561L117.221 134.624L123.477 155.908L129.801 134.624L129.461 133.4H131.909L130.889 134.624L124.021 157.744V178.348L124.701 181ZM158.811 181H154.323L153.983 178.552L144.939 155.908H143.239V178.348L143.919 181H137.799L138.479 178.348V136.052L137.799 133.4H147.387C150.334 133.4 152.759 134.375 154.663 136.324C156.612 138.228 157.587 140.676 157.587 143.668C157.587 147.068 156.703 149.901 154.935 152.168C153.212 154.389 150.923 155.636 148.067 155.908L157.111 178.552L158.811 181ZM147.387 154.82C148.928 154.82 150.198 153.8 151.195 151.76C152.238 149.72 152.782 147.068 152.827 143.804C152.827 141.129 152.306 138.908 151.263 137.14C150.266 135.372 148.974 134.488 147.387 134.488H143.239V154.82H147.387ZM185.162 181H178.974L179.246 178.348L177.342 165.632H168.774L166.87 178.348L167.142 181H164.694L165.782 178.348L172.106 136.052L171.834 133.4H177.342L184.074 178.348L185.162 181ZM177.206 164.544L173.058 137.004L168.91 164.544H177.206ZM211.454 181H205.334L206.014 178.348V136.052L205.334 133.4H215.126C218.028 133.4 220.408 134.76 222.266 137.48C224.125 140.2 225.054 143.645 225.054 147.816C225.054 152.213 224.125 155.84 222.266 158.696C220.408 161.552 218.028 162.98 215.126 162.98H210.774V178.348L211.454 181ZM215.126 161.892C216.577 161.892 217.778 160.6 218.73 158.016C219.728 155.432 220.249 152.077 220.294 147.952C220.294 144.053 219.796 140.835 218.798 138.296C217.846 135.757 216.622 134.488 215.126 134.488H210.774V161.892H215.126ZM251.285 181H231.565L232.245 178.348V136.052L231.565 133.4H251.285L253.189 140.88C250.967 137.344 248.451 135.213 245.641 134.488H237.005V156.656H242.717L250.197 154.752C246.661 156.973 244.53 159.489 243.805 162.3V157.744H237.005V179.912H245.641C248.451 179.187 250.967 177.056 253.189 173.52L251.285 181ZM239.997 124.22L238.841 123.132L242.717 116.536L245.845 119.46L239.997 124.22ZM280.733 181H276.245L275.905 178.552L266.861 155.908H265.161V178.348L265.841 181H259.721L260.401 178.348V136.052L259.721 133.4H269.309C272.256 133.4 274.681 134.375 276.585 136.324C278.534 138.228 279.509 140.676 279.509 143.668C279.509 147.068 278.625 149.901 276.857 152.168C275.134 154.389 272.845 155.636 269.989 155.908L279.033 178.552L280.733 181ZM269.309 154.82C270.85 154.82 272.12 153.8 273.117 151.76C274.16 149.72 274.704 147.068 274.749 143.804C274.749 141.129 274.228 138.908 273.185 137.14C272.188 135.372 270.896 134.488 269.309 134.488H265.161V154.82H269.309ZM307 181H287.28L287.96 178.348V136.052L287.28 133.4H307L308.904 140.88C306.682 137.344 304.166 135.213 301.356 134.488H292.72V156.656H298.432L305.912 154.752C302.376 156.973 300.245 159.489 299.52 162.3V157.744H292.72V179.912H301.356C304.166 179.187 306.682 177.056 308.904 173.52L307 181ZM331.244 181H314.108V179.912L328.184 134.488H321.656C318.89 135.213 316.374 137.344 314.108 140.88L316.012 133.4H333.148V134.488L319.072 179.912H325.6C328.41 179.187 330.926 177.056 333.148 173.52L331.244 181Z" fill="#312E25"/>
<path d="M25.2574 261H19.0694L19.3414 258.348L17.4374 245.632H8.86939L6.96539 258.348L7.23739 261H4.78939L5.87739 258.348L12.2014 216.052L11.9294 213.4H17.4374L24.1694 258.348L25.2574 261ZM17.3014 244.544L13.1534 217.004L9.00539 244.544H17.3014ZM46.9127 259.912C52.9874 259.595 57.9061 257.328 61.6687 253.112C65.4767 248.896 67.4487 243.456 67.5847 236.792C67.4487 230.4 65.4994 225.164 61.7367 221.084C57.9741 216.959 53.0781 214.76 47.0487 214.488H36.7127V259.912H46.9127ZM46.8447 261H31.2727L31.9527 258.348V216.052L31.2727 213.4H46.9127C54.2114 213.4 60.2181 215.553 64.9327 219.86C69.6474 224.167 72.1181 229.743 72.3447 236.588V236.792C72.3447 243.909 69.9874 249.735 65.2727 254.268C60.5581 258.756 54.4154 261 46.8447 261ZM99.3131 261H94.8251L94.4851 258.552L85.4411 235.908H83.7411V258.348L84.4211 261H78.3011L78.9811 258.348V216.052L78.3011 213.4H87.8891C90.8358 213.4 93.2611 214.375 95.1651 216.324C97.1144 218.228 98.0891 220.676 98.0891 223.668C98.0891 227.068 97.2051 229.901 95.4371 232.168C93.7144 234.389 91.4251 235.636 88.5691 235.908L97.6131 258.552L99.3131 261ZM87.8891 234.82C89.4304 234.82 90.6998 233.8 91.6971 231.76C92.7398 229.72 93.2838 227.068 93.3291 223.804C93.3291 221.129 92.8078 218.908 91.7651 217.14C90.7678 215.372 89.4758 214.488 87.8891 214.488H83.7411V234.82H87.8891ZM111.98 261H105.86L106.54 258.348V216.052L105.86 213.4H111.98L111.3 216.052V258.348L111.98 261ZM138.945 261H132.757L133.029 258.348L131.125 245.632H122.557L120.653 258.348L120.925 261H118.477L119.565 258.348L125.889 216.052L125.617 213.4H131.125L137.857 258.348L138.945 261ZM126.365 204.22L125.209 203.132L129.085 196.536L132.213 199.46L126.365 204.22ZM130.989 244.544L126.841 217.004L122.693 244.544H130.989ZM165.224 261H160.26L147.272 217.072V258.348L147.952 261H145.504L146.184 258.348V216.052L145.504 213.4H151.148L164.136 257.328V216.052L163.456 213.4H165.904L165.224 216.052V261ZM214.026 261H207.906L208.586 258.348V219.18L200.698 261H195.87L187.846 219.112V258.348L188.526 261H186.078L186.758 258.348V216.052L186.078 213.4H192.266L192.062 215.984L200.154 258.144L208.11 215.984L207.906 213.4H214.026L213.346 216.052V258.348L214.026 261ZM240.347 261H234.159L234.431 258.348L232.527 245.632H223.959L222.055 258.348L222.327 261H219.879L220.967 258.348L227.291 216.052L227.019 213.4H232.527L239.259 258.348L240.347 261ZM232.391 244.544L228.243 217.004L224.095 244.544H232.391ZM267.919 261H263.431L263.091 258.552L254.047 235.908H252.347V258.348L253.027 261H246.907L247.587 258.348V216.052L246.907 213.4H256.495C259.441 213.4 261.867 214.375 263.771 216.324C265.72 218.228 266.695 220.676 266.695 223.668C266.695 227.068 265.811 229.901 264.043 232.168C262.32 234.389 260.031 235.636 257.175 235.908L266.219 258.552L267.919 261ZM256.495 234.82C258.036 234.82 259.305 233.8 260.303 231.76C261.345 229.72 261.889 227.068 261.935 223.804C261.935 221.129 261.413 218.908 260.371 217.14C259.373 215.372 258.081 214.488 256.495 214.488H252.347V234.82H256.495ZM284.898 261H278.778L279.458 258.348V214.488H277.962C275.197 215.213 272.681 217.344 270.414 220.88L272.318 213.4H291.358L293.262 220.88C291.041 217.344 288.525 215.213 285.714 214.488H284.218V258.348L284.898 261ZM305.886 261H299.766L300.446 258.348V216.052L299.766 213.4H305.886L305.206 216.052V258.348L305.886 261ZM300.446 204.22L299.29 203.132L303.166 196.536L306.294 199.46L300.446 204.22ZM332.103 261H327.139L314.151 217.072V258.348L314.831 261H312.383L313.063 258.348V216.052L312.383 213.4H318.027L331.015 257.328V216.052L330.335 213.4H332.783L332.103 216.052V261ZM359.064 261H339.344L340.024 258.348V216.052L339.344 213.4H359.064L360.968 220.88C358.747 217.344 356.231 215.213 353.42 214.488H344.784V236.656H350.496L357.976 234.752C354.44 236.973 352.309 239.489 351.584 242.3V237.744H344.784V259.912H353.42C356.231 259.187 358.747 257.056 360.968 253.52L359.064 261ZM383.308 261H366.172V259.912L380.248 214.488H373.72C370.955 215.213 368.439 217.344 366.172 220.88L368.076 213.4H385.212V214.488L371.136 259.912H377.664C380.475 259.187 382.991 257.056 385.212 253.52L383.308 261Z" fill="#312E25"/>
<path d="M214.051 217.244L214.261 217.664C210.621 219.974 207.471 221.164 204.811 221.514C201.101 222.074 198.231 220.884 196.131 218.574C194.031 216.264 192.701 212.764 191.861 208.564C191.721 207.794 191.511 207.024 191.441 206.184C187.801 209.404 183.601 212.484 178.701 215.774C174.221 218.784 165.541 223.964 160.151 220.184C158.961 219.344 158.191 218.084 157.841 216.474C157.421 214.304 157.841 211.434 159.311 208.144C165.051 195.264 179.191 184.834 192.701 176.574C195.291 168.664 202.291 161.384 209.011 157.324C213.071 154.874 216.991 153.614 219.861 154.104C220.771 154.244 221.541 154.594 222.171 155.154H222.241C223.571 156.204 223.431 157.464 222.241 158.934C218.531 163.764 199.281 174.334 192.561 178.884C191.371 187.984 192.071 196.244 193.961 202.894C208.101 189.314 212.931 178.464 230.291 178.464C230.361 178.464 230.291 179.234 230.291 179.234C213.841 179.234 207.751 190.784 194.241 203.664C194.661 205.134 195.221 206.604 195.851 207.864C197.251 210.874 198.931 213.394 200.961 215.214C202.921 217.034 205.091 218.154 207.541 218.434C209.571 218.714 211.741 218.364 214.051 217.244ZM178.421 215.424C183.531 211.994 187.731 208.634 191.301 205.344C190.391 197.714 190.881 188.334 192.001 179.374V179.304C180.521 187.074 169.111 196.734 163.931 208.284C162.251 212.064 161.551 215.144 161.831 217.314C161.971 218.574 162.461 219.554 163.231 220.114C166.661 222.774 175.621 217.314 178.421 215.424ZM193.331 176.154C199.771 172.234 218.601 162.644 221.961 158.304C222.801 157.254 222.871 156.274 221.961 155.504H221.891C221.331 155.014 220.561 154.734 219.791 154.594C216.991 154.104 213.211 155.364 209.291 157.674C202.431 161.874 196.131 168.594 193.331 176.154Z" fill="#A39D79"/>
<path d="M194.5 0C175.475 0 160 17.9442 160 40C160 62.0558 175.478 80 194.5 80C213.522 80 229 62.0558 229 40C229 17.9442 213.522 0 194.5 0ZM194.5 79.749C175.622 79.749 160.262 61.9189 160.262 40.0025C160.262 18.0862 175.619 0.253485 194.5 0.253485C213.381 0.253485 228.738 18.0837 228.738 40C228.738 61.9164 213.378 79.7465 194.5 79.7465V79.749Z" fill="#312E25"/>
<path d="M227.166 33.3207C224.444 15.1762 210.832 1.34094 194.5 1.34094C176.214 1.34094 161.336 18.6844 161.336 40.0025C161.336 61.3207 176.214 78.6641 194.5 78.6641C212.786 78.6641 227.664 61.3207 227.664 40.0025C227.664 37.7262 227.494 35.4956 227.169 33.3257C227.169 33.3257 227.169 33.3232 227.169 33.3207H227.166ZM194.5 1.56907C210.682 1.56907 224.177 15.2674 226.92 33.2497L226.794 33.2928C226.454 33.4068 226.495 33.3942 226.131 33.5767C223.145 34.7706 218.565 34.6109 214.135 34.4563C211.277 34.3574 208.576 34.2611 206.25 34.5019C204.594 31.3511 201.34 29.9569 197.57 30.7123L195.967 22.0938C195.763 21.0418 195.938 20.1977 196.494 19.5564C197.049 18.9176 197.88 18.5273 198.99 18.3828V18.1267H194.914C194.505 18.1267 194.118 18.2256 193.753 18.4259C193.387 18.6261 193.132 18.8948 192.986 19.237L183.696 42.1318L173.573 19.237C173.426 18.8669 173.164 18.5906 172.785 18.4056C172.405 18.2205 172.009 18.1293 171.6 18.1293H167.438C173.392 8.12928 183.3 1.56907 194.5 1.56907ZM186.989 52.9303C188.157 54.3473 190.08 55.0342 192.551 54.9227C196.402 54.7478 200.533 52.3523 203.617 48.512L206.436 49.2167C205.307 50.2129 204.167 51.2877 202.965 52.4208C197.728 57.3638 191.791 62.9683 184.66 63.2902C180.61 63.4753 177.65 61.3485 177.118 57.8783C176.536 54.0811 179.101 49.2142 186.085 47.3992C185.527 49.5894 185.844 51.5463 186.989 52.9328V52.9303ZM197.678 31.2978C201.141 30.5754 204.049 31.7465 205.618 34.5526C203.119 34.8568 200.756 35.4018 198.582 36.1597L197.678 31.2978ZM205.907 35.1153C207.583 38.763 206.624 43.635 203.394 47.8834C201.047 47.2826 198.702 46.7275 196.219 46.4106L198.375 46.3067L202.889 46.6058V46.3498C201.982 46.3498 201.304 46.0583 200.85 45.4753C200.397 44.8923 200.07 44.0887 199.865 43.0672L198.686 36.7199C200.795 35.9823 203.195 35.4221 205.907 35.1153ZM197.018 43.0672C197.193 44.0913 196.915 44.8948 196.185 45.4753C195.742 45.8276 195.076 46.071 194.196 46.2104C193.046 46.1318 191.864 46.1115 190.631 46.1673C189.308 46.2281 188.084 46.3802 186.989 46.6236C188.113 43.6223 191.037 40.1673 196.085 37.7795L197.018 43.0672ZM190.659 46.7554C195.179 46.5501 198.93 47.3536 202.986 48.36C200.038 51.9442 196.143 54.1724 192.522 54.3371C190.222 54.4411 188.456 53.8099 187.411 52.512C186.36 51.2066 186.13 49.3409 186.761 47.2548C187.94 46.9835 189.219 46.8213 190.659 46.7554ZM204.382 48.1293L204.015 48.0355C207.203 43.7414 208.154 38.801 206.522 35.0317C208.754 34.8289 211.324 34.9227 214.041 35.0241C217.426 35.1483 220.913 35.2776 223.766 34.7909C220.216 36.948 216.242 40.5146 212.391 43.9721L212.354 44.0051C210.706 45.5032 209.087 46.91 207.371 48.398L206.954 48.7605C206.153 48.5805 205.33 48.3701 204.382 48.1293ZM216.32 42.7376C219.254 40.0406 222.236 37.3359 224.512 35.5741C219.532 40.0177 215.207 44.7883 211.903 49.493C211.044 49.4398 210.132 49.3384 209.001 49.1736C211.5 47.019 213.889 44.8999 216.318 42.7402L216.32 42.7376ZM167.283 18.3904C168.375 18.5399 169.489 18.9252 170.136 19.5539C170.794 20.1926 170.99 21.1103 170.728 22.3042L166.303 42.9404C166.041 44.1343 165.638 45.0013 165.098 45.5412C164.569 46.071 163.204 46.3397 162.025 46.3498C161.729 44.2839 161.574 42.1648 161.574 40.0025C161.574 31.9949 163.683 24.5551 167.288 18.3929L167.283 18.3904ZM194.5 78.4335C178.27 78.4335 164.747 64.6565 162.059 46.5982L166.214 46.3067L171.648 46.6058V46.3498C169.748 46.3498 168.47 46.0811 167.815 45.5387C167.157 44.9987 166.945 44.1318 167.178 42.9379L171.472 21.706L182.514 45.9645L193.119 20.9379L195.988 37.2066C194.702 37.8048 193.502 38.4892 192.404 39.2548C189.373 41.3688 187.207 44.0304 186.295 46.763C178.729 48.5526 175.934 53.7921 176.539 57.9164C177.099 61.7338 180.301 64.071 184.694 63.8707C192.69 63.5082 200.274 56.834 206.368 51.4728C207.085 50.8416 207.782 50.2281 208.456 49.6477C209.566 49.853 210.53 50 211.505 50.0431C209.05 53.6274 207.248 57.0697 206.286 60.0152C204.997 64.0406 205.244 67.1762 206.983 68.8441C207.979 69.7998 209.433 70.2357 211.272 70.1521C212.854 70.0811 215.042 69.4271 215.94 69.1483C210.177 74.9303 202.684 78.4309 194.505 78.4309L194.5 78.4335ZM216.677 68.3853C216.635 68.3625 216.587 68.3574 216.543 68.3701C213.779 69.2269 209.962 69.5843 208.702 68.4081C207.138 66.9506 206.863 63.9721 207.942 60.2357C208.817 57.1863 210.538 53.6781 212.92 50.0811C215.581 50.0253 217.937 49.308 220.318 47.82C220.391 47.7744 220.415 47.6806 220.373 47.6071L220.245 47.384C220.221 47.346 220.184 47.3181 220.14 47.3055C220.095 47.2953 220.048 47.3029 220.009 47.3257C217.882 48.6464 215.694 49.3511 213.326 49.4728C216.883 44.2383 221.337 38.9734 227.019 33.9544C227.287 35.924 227.428 37.9417 227.428 39.9975C227.428 51.2269 223.278 61.3485 216.677 68.3802V68.3853Z" fill="#312E25"/>
</svg>

<svg xmlns="http://www.w3.org/2000/svg" fill="none" viewBox="0 0 390 281"><path fill="#312e25" d="M83.802 181h-6.12l.68-2.652V139.18L70.474 181h-4.828l-8.024-41.888v39.236l.68 2.652h-2.448l.68-2.652v-42.296l-.68-2.652h6.188l-.204 2.584 8.092 42.16 7.956-42.16-.204-2.584h6.12l-.68 2.652v42.296zm26.321 0h-6.188l.272-2.652-1.904-12.716h-8.568l-1.904 12.716.272 2.652h-2.448l1.088-2.652 6.324-42.296-.272-2.652h5.508l6.732 44.948zm-7.956-16.456-4.148-27.54-4.148 27.54zM124.701 181h-6.324l.68-2.652v-20.604l-6.8-23.12-1.02-1.224h6.324l-.34 1.224 6.256 21.284 6.324-21.284-.34-1.224h2.448l-1.02 1.224-6.868 23.12v20.604zm34.11 0h-4.488l-.34-2.448-9.044-22.644h-1.7v22.44l.68 2.652h-6.12l.68-2.652v-42.296l-.68-2.652h9.588q4.42 0 7.276 2.924 2.924 2.856 2.924 7.344 0 5.1-2.652 8.5-2.584 3.332-6.868 3.74l9.044 22.644zm-11.424-26.18q2.312 0 3.808-3.06 1.565-3.06 1.632-7.956 0-4.012-1.564-6.664-1.496-2.652-3.876-2.652h-4.148v20.332zM185.162 181h-6.188l.272-2.652-1.904-12.716h-8.568l-1.904 12.716.272 2.652h-2.448l1.088-2.652 6.324-42.296-.272-2.652h5.508l6.732 44.948zm-7.956-16.456-4.148-27.54-4.148 27.54zM211.454 181h-6.12l.68-2.652v-42.296l-.68-2.652h9.792q4.353 0 7.14 4.08t2.788 10.336q0 6.596-2.788 10.88t-7.14 4.284h-4.352v15.368zm3.672-19.108q2.176 0 3.604-3.876 1.497-3.876 1.564-10.064 0-5.848-1.496-9.656-1.428-3.808-3.672-3.808h-4.352v27.404zM251.285 181h-19.72l.68-2.652v-42.296l-.68-2.652h19.72l1.904 7.48q-3.333-5.304-7.548-6.392h-8.636v22.168h5.712l7.48-1.904q-5.304 3.332-6.392 7.548v-4.556h-6.8v22.168h8.636q4.215-1.088 7.548-6.392zm-11.288-56.78-1.156-1.088 3.876-6.596 3.128 2.924zM280.733 181h-4.488l-.34-2.448-9.044-22.644h-1.7v22.44l.68 2.652h-6.12l.68-2.652v-42.296l-.68-2.652h9.588q4.42 0 7.276 2.924 2.924 2.856 2.924 7.344 0 5.1-2.652 8.5-2.584 3.332-6.868 3.74l9.044 22.644zm-11.424-26.18q2.312 0 3.808-3.06 1.565-3.06 1.632-7.956 0-4.012-1.564-6.664-1.495-2.652-3.876-2.652h-4.148v20.332zM307 181h-19.72l.68-2.652v-42.296l-.68-2.652H307l1.904 7.48q-3.333-5.304-7.548-6.392h-8.636v22.168h5.712l7.48-1.904q-5.304 3.332-6.392 7.548v-4.556h-6.8v22.168h8.636q4.215-1.088 7.548-6.392zm24.244 0h-17.136v-1.088l14.076-45.424h-6.528q-4.149 1.088-7.548 6.392l1.904-7.48h17.136v1.088l-14.076 45.424h6.528q4.215-1.088 7.548-6.392zM25.257 261H19.07l.272-2.652-1.904-12.716H8.87l-1.904 12.716.272 2.652H4.79l1.088-2.652 6.324-42.296-.272-2.652h5.508l6.732 44.948zm-7.956-16.456-4.148-27.54-4.148 27.54zm29.612 15.368q9.111-.476 14.756-6.8 5.712-6.324 5.916-16.32-.204-9.588-5.848-15.708-5.644-6.188-14.688-6.596H36.713v45.424zM46.845 261H31.273l.68-2.652v-42.296l-.68-2.652h15.64q10.947 0 18.02 6.46 7.071 6.46 7.412 16.728v.204q0 10.676-7.072 17.476Q58.2 261 46.845 261m52.468 0h-4.488l-.34-2.448-9.044-22.644h-1.7v22.44l.68 2.652h-6.12l.68-2.652v-42.296l-.68-2.652h9.588q4.42 0 7.276 2.924 2.924 2.856 2.924 7.344 0 5.1-2.652 8.5-2.584 3.332-6.868 3.74l9.044 22.644zM87.89 234.82q2.311 0 3.808-3.06 1.565-3.06 1.632-7.956 0-4.012-1.564-6.664-1.496-2.652-3.876-2.652h-4.148v20.332zM111.98 261h-6.12l.68-2.652v-42.296l-.68-2.652h6.12l-.68 2.652v42.296zm26.965 0h-6.188l.272-2.652-1.904-12.716h-8.568l-1.904 12.716.272 2.652h-2.448l1.088-2.652 6.324-42.296-.272-2.652h5.508l6.732 44.948zm-12.58-56.78-1.156-1.088 3.876-6.596 3.128 2.924zm4.624 40.324-4.148-27.54-4.148 27.54zM165.224 261h-4.964l-12.988-43.928v41.276l.68 2.652h-2.448l.68-2.652v-42.296l-.68-2.652h5.644l12.988 43.928v-41.276l-.68-2.652h2.448l-.68 2.652zm48.802 0h-6.12l.68-2.652V219.18L200.698 261h-4.828l-8.024-41.888v39.236l.68 2.652h-2.448l.68-2.652v-42.296l-.68-2.652h6.188l-.204 2.584 8.092 42.16 7.956-42.16-.204-2.584h6.12l-.68 2.652v42.296zm26.321 0h-6.188l.272-2.652-1.904-12.716h-8.568l-1.904 12.716.272 2.652h-2.448l1.088-2.652 6.324-42.296-.272-2.652h5.508l6.732 44.948zm-7.956-16.456-4.148-27.54-4.148 27.54zM267.919 261h-4.488l-.34-2.448-9.044-22.644h-1.7v22.44l.68 2.652h-6.12l.68-2.652v-42.296l-.68-2.652h9.588q4.42 0 7.276 2.924 2.924 2.856 2.924 7.344 0 5.1-2.652 8.5-2.584 3.332-6.868 3.74l9.044 22.644zm-11.424-26.18q2.311 0 3.808-3.06 1.563-3.06 1.632-7.956 0-4.012-1.564-6.664-1.497-2.652-3.876-2.652h-4.148v20.332zM284.898 261h-6.12l.68-2.652v-43.86h-1.496q-4.148 1.088-7.548 6.392l1.904-7.48h19.04l1.904 7.48q-3.332-5.304-7.548-6.392h-1.496v43.86zm20.988 0h-6.12l.68-2.652v-42.296l-.68-2.652h6.12l-.68 2.652v42.296zm-5.44-56.78-1.156-1.088 3.876-6.596 3.128 2.924zM332.103 261h-4.964l-12.988-43.928v41.276l.68 2.652h-2.448l.68-2.652v-42.296l-.68-2.652h5.644l12.988 43.928v-41.276l-.68-2.652h2.448l-.68 2.652zm26.961 0h-19.72l.68-2.652v-42.296l-.68-2.652h19.72l1.904 7.48q-3.332-5.304-7.548-6.392h-8.636v22.168h5.712l7.48-1.904q-5.304 3.332-6.392 7.548v-4.556h-6.8v22.168h8.636q4.216-1.088 7.548-6.392zm24.244 0h-17.136v-1.088l14.076-45.424h-6.528q-4.147 1.088-7.548 6.392l1.904-7.48h17.136v1.088l-14.076 45.424h6.528q4.216-1.088 7.548-6.392z"/><path fill="#a39d79" d="m214.051 217.244.21.42c-3.64 2.31-6.79 3.5-9.45 3.85-3.71.56-6.58-.63-8.68-2.94s-3.43-5.81-4.27-10.01c-.14-.77-.35-1.54-.42-2.38-3.64 3.22-7.84 6.3-12.74 9.59-4.48 3.01-13.16 8.19-18.55 4.41-1.19-.84-1.96-2.1-2.31-3.71-.42-2.17 0-5.04 1.47-8.33 5.74-12.88 19.88-23.31 33.39-31.57 2.59-7.91 9.59-15.19 16.31-19.25 4.06-2.45 7.98-3.71 10.85-3.22q1.365.21 2.31 1.05h.07c1.33 1.05 1.19 2.31 0 3.78-3.71 4.83-22.96 15.4-29.68 19.95-1.19 9.1-.49 17.36 1.4 24.01 14.14-13.58 18.97-24.43 36.33-24.43.07 0 0 .77 0 .77-16.45 0-22.54 11.55-36.05 24.43.42 1.47.98 2.94 1.61 4.2 1.4 3.01 3.08 5.53 5.11 7.35 1.96 1.82 4.13 2.94 6.58 3.22 2.03.28 4.2-.07 6.51-1.19m-35.63-1.82c5.11-3.43 9.31-6.79 12.88-10.08-.91-7.63-.42-17.01.7-25.97v-.07c-11.48 7.77-22.89 17.43-28.07 28.98-1.68 3.78-2.38 6.86-2.1 9.03.14 1.26.63 2.24 1.4 2.8 3.43 2.66 12.39-2.8 15.19-4.69m14.91-39.27c6.44-3.92 25.27-13.51 28.63-17.85.84-1.05.91-2.03 0-2.8h-.07c-.56-.49-1.33-.77-2.1-.91-2.8-.49-6.58.77-10.5 3.08-6.86 4.2-13.16 10.92-15.96 18.48"/><path fill="#312e25" d="M194.5 0C175.475 0 160 17.944 160 40s15.478 40 34.5 40S229 62.056 229 40 213.522 0 194.5 0m0 79.749c-18.878 0-34.238-17.83-34.238-39.746S175.619.252 194.5.252 228.738 18.083 228.738 40c0 21.916-15.36 39.747-34.238 39.747z"/><path fill="#312e25" d="M227.166 33.32C224.444 15.177 210.832 1.34 194.5 1.34c-18.286 0-33.164 17.344-33.164 38.662 0 21.319 14.878 38.662 33.164 38.662s33.164-17.343 33.164-38.662c0-2.276-.17-4.506-.495-6.676v-.005zM194.5 1.57c16.182 0 29.677 13.697 32.42 31.68l-.126.043c-.34.114-.299.101-.663.284-2.986 1.194-7.566 1.034-11.996.88-2.858-.1-5.559-.196-7.885.045-1.656-3.15-4.91-4.545-8.68-3.79l-1.603-8.618q-.306-1.577.527-2.538.832-.957 2.496-1.173v-.256h-4.076q-.613 0-1.161.299t-.767.811l-9.29 22.895-10.123-22.895a1.53 1.53 0 0 0-.788-.831 2.7 2.7 0 0 0-1.185-.277h-4.162c5.954-10 15.862-16.56 27.062-16.56m-7.511 51.36c1.168 1.417 3.091 2.104 5.562 1.993 3.851-.175 7.982-2.57 11.066-6.411l2.819.705c-1.129.996-2.269 2.07-3.471 3.204-5.237 4.943-11.174 10.547-18.305 10.87-4.05.184-7.01-1.942-7.542-5.413-.582-3.797 1.983-8.664 8.967-10.479-.558 2.19-.241 4.147.904 5.534zm10.689-21.632c3.463-.723 6.371.449 7.94 3.255-2.499.304-4.862.849-7.036 1.607zm8.229 3.817c1.676 3.648.717 8.52-2.513 12.768-2.347-.6-4.692-1.156-7.175-1.472l2.156-.104 4.514.299v-.256q-1.36 0-2.039-.875-.678-.875-.985-2.408l-1.179-6.347c2.109-.738 4.509-1.298 7.221-1.605m-8.889 7.952q.262 1.537-.833 2.408c-.443.353-1.109.596-1.989.735a31 31 0 0 0-3.565-.043c-1.323.061-2.547.213-3.642.457 1.124-3.002 4.048-6.457 9.096-8.845zm-6.359 3.688c4.52-.205 8.271.599 12.327 1.605-2.948 3.584-6.843 5.812-10.464 5.977-2.3.104-4.066-.527-5.111-1.825-1.051-1.305-1.281-3.171-.65-5.257 1.179-.272 2.458-.434 3.898-.5m13.723 1.374-.367-.093c3.188-4.295 4.139-9.235 2.507-13.004 2.232-.203 4.802-.11 7.519-.008 3.385.124 6.872.254 9.725-.233-3.55 2.157-7.524 5.724-11.375 9.181l-.037.033a280 280 0 0 1-4.983 4.393l-.417.362c-.801-.18-1.624-.39-2.572-.63m11.938-5.391c2.934-2.697 5.916-5.402 8.192-7.164-4.98 4.444-9.305 9.214-12.609 13.919a35 35 0 0 1-2.902-.32 632 632 0 0 0 7.317-6.433zM167.283 18.39c1.092.15 2.206.535 2.853 1.164q.986.959.592 2.75l-4.425 20.636q-.394 1.791-1.205 2.601c-.529.53-1.894.799-3.073.809a45 45 0 0 1-.451-6.348c0-8.007 2.109-15.447 5.714-21.61zM194.5 78.433c-16.23 0-29.753-13.777-32.441-31.835l4.155-.291 5.434.299v-.256q-2.85.001-3.833-.811-.987-.81-.637-2.601l4.294-21.232 11.042 24.259 10.605-25.027 2.869 16.269a24 24 0 0 0-3.584 2.048c-3.031 2.114-5.197 4.775-6.109 7.508-7.566 1.79-10.361 7.03-9.756 11.153.56 3.818 3.762 6.155 8.155 5.955 7.996-.363 15.58-7.037 21.674-12.398.717-.631 1.414-1.245 2.088-1.825 1.11.205 2.074.352 3.049.395-2.455 3.584-4.257 7.027-5.219 9.972-1.289 4.026-1.042 7.161.697 8.83.996.955 2.45 1.39 4.289 1.307 1.582-.07 3.77-.725 4.668-1.004-5.763 5.782-13.256 9.283-21.435 9.283zm22.177-10.048a.18.18 0 0 0-.134-.015c-2.764.857-6.581 1.214-7.841.038-1.564-1.457-1.839-4.436-.76-8.172.875-3.05 2.596-6.558 4.978-10.155 2.661-.056 5.017-.773 7.398-2.261a.16.16 0 0 0 .055-.213l-.128-.223a.18.18 0 0 0-.105-.078.18.18 0 0 0-.131.02c-2.127 1.32-4.315 2.025-6.683 2.147 3.557-5.235 8.011-10.5 13.693-15.519.268 1.97.409 3.988.409 6.044 0 11.229-4.15 21.35-10.751 28.382z"/></svg>
